!!!OTL: Die Worte des Glaubens.
!!!OTL-incipit:DREI WORTE NENN ICH EUCH INHALTSSCHWER
!!!COM: J. Fr. Reichardt
!!!ARE: Europa, Mitteleuropa, Deutschland
!!!SCT: F0309
!!!TXL: @@DE
!!!YEM: Copyright 1995, estate of Helmut Schaffrath.
**kern	**text
*ICvox	*
*clefG2	*
*M4/4	*
*met(c)	*
*k[b-e-a-]	*
*E-:	*
!LO:TX:a:t=Mäſig langsam.	!
{4b-	1._Drei
=1	=1
4ee-	Wor-
4ee-	-te
4ee-	nenn'
8dd/	ich
8cc/	euch
=2	=2
4.b-/	in?
8b-/	hätſchier,
4b-/	.
8r}	.
{8b-/	ſie
=3	=3
4cc/	ge-
8dd/	-hen
8dd/	von
4ee-/	Mun-
8g	-de
8g	ʒu
=4	=4
2b-/	Mun-
4g	-de;
8r}	.
{8g	doch
=5	=5
4ee-	ſtam-
8ee-	-men
8ee-	ſie
(4ee-	nicht
8dd/)	.
8cc/	von
=6	=6
4b/	au-
4b/	-ßen
4cc/	her,
8r}	.
{8cc/	das
=7	=7
4dd-/	Herʒ
4dd-/	nur
8dd-qq	.
4cc/	gibt
8b-X/	da-
8a-	-von
=8	=8
(>4a-	Kun-
4b-/)	.
4a-	-de.
8r}	.
{8cc/	Dem
=9	=9
4cc/	Menſchen
8cc/	.
8cc/	iſt
4cc/	al-
4f	-ler
=10	=10
4.b-/	Werth
8a-/	ge-
8g}	-raubt,
{8e-	wenn
8f	er
8g	nicht
=11	=11
4a-	mehr
4b-/	an
8cc/L	die
8ddJ	.
4ee-/	drei
=12	=12
2ee-/	Wor-
2dd/	-te
=13	=13
2.ee-/}	glaubt.
==	==
!!!AGN: Jugend - Lied, Moral, religioes
!!!ONB: ESAC (Essen Associative Code) Database: FINK
!!!AMT: simple quadruple
!!!AIN: vox
!!!EED: Helmut Schaffrath
!!!EEV: 1.0
!!!RDF**kern: > = above
!!!GTL: Jugendlieder
!!Text: Fr. Schiller
!!!source: Musikalischer Hausschatz der Deutschen. Eine Sammlung von über 1000 Liedern und Gesängen mit Singstimmen und Klavierbegleitung. Leipzig, Litterarisches Verlags-Haus.
!!!page: 185
!!!URL-scan: https://www.digitale-sammlungen.de/en/view/bsb11144622?page=182,183
!!!ENC: Anna Maria Matuszewska
!!!EEV: 2024/07/30
*-	*-